packages/ffe-icons/icons/filled/md/heap_snapshot_multiple.svg

<svg xmlns="http://www.w3.org/2000/svg" height="24" viewBox="0 -960 960 960" width="24"><path d="M449.978-520.001q16.791 0 28.406-11.594 11.615-11.593 11.615-28.384t-11.593-28.406Q466.812-600 450.022-600q-16.791 0-28.406 11.594-11.615 11.593-11.615 28.384 0 16.79 11.593 28.405 11.594 11.616 28.384 11.616Zm28.714 154.077 166-166q8.923-8.923 9.115-21.192.192-12.269-9.115-21.577Q635.384-584 623.308-584q-12.077 0-21.384 9.307L435.308-408.077q-8.923 8.923-8.807 20.884.115 11.961 9.423 21.269 9.307 9.307 21.384 9.307 12.076 0 21.384-9.307Zm151.286 25.923q16.791 0 28.406-11.594 11.615-11.593 11.615-28.384t-11.593-28.406Q646.812-420 630.022-420q-16.791 0-28.406 11.594-11.615 11.593-11.615 28.384 0 16.79 11.593 28.405 11.594 11.616 28.384 11.616Zm117.713 120H332.309q-30.308 0-51.308-21t-21-51.308v-535.382q0-30.308 21-51.308t51.308-21h247.769q14.632 0 27.893 5.616 13.26 5.615 23.107 15.461l167.844 167.844q9.846 9.847 15.461 23.107 5.616 13.261 5.616 27.893v367.769q0 30.308-21 51.308t-51.308 21Zm12.309-440L580.001-840v131.538q0 20.192 14.135 34.326 14.134 14.135 34.326 14.135H760Zm-587.691 600q-30.308 0-51.308-21t-21-51.308v-497.69q0-12.75 8.629-21.375t21.384-8.625q12.756 0 21.371 8.625Q160-642.749 160-629.999v497.69q0 4.616 3.846 8.463 3.847 3.846 8.463 3.846h377.69q12.75 0 21.375 8.629 8.625 8.628 8.625 21.384 0 12.755-8.625 21.37Q562.749-60 549.999-60h-377.69Z"/></svg>

<svg xmlns="http://www.w3.org/2000/svg" height="24" viewBox="0 -960 960 960" width="24"><path d="M449.98-520q16.79 0 28.4-11.59Q490-543.19 490-559.98t-11.59-28.4Q466.81-600 450.02-600t-28.4 11.59Q410-576.81 410-560.02t11.59 28.4Q433.19-520 449.98-520Zm28.71 154.08 166-166q8.92-8.93 9.12-21.2.19-12.27-9.12-21.57-9.31-9.31-21.38-9.31-12.08 0-21.39 9.31L435.31-408.08q-8.92 8.93-8.81 20.89.12 11.96 9.42 21.27 9.31 9.3 21.39 9.3 12.07 0 21.38-9.3ZM629.98-340q16.79 0 28.4-11.59Q670-363.19 670-379.98t-11.59-28.4Q646.81-420 630.02-420t-28.4 11.59Q590-396.81 590-380.02t11.59 28.4Q613.19-340 629.98-340Zm117.71 120H332.31Q302-220 281-241q-21-21-21-51.31v-535.38Q260-858 281-879q21-21 51.31-21h247.77q14.63 0 27.89 5.62 13.26 5.61 23.11 15.46l167.84 167.84q9.85 9.85 15.46 23.11 5.62 13.26 5.62 27.89v367.77Q820-262 799-241q-21 21-51.31 21ZM760-660 580-840v131.54q0 20.19 14.14 34.32Q608.27-660 628.46-660H760ZM172.31-60Q142-60 121-81q-21-21-21-51.31V-630q0-12.75 8.63-21.37 8.63-8.63 21.38-8.63 12.76 0 21.37 8.63Q160-642.75 160-630v497.69q0 4.62 3.85 8.46 3.84 3.85 8.46 3.85H550q12.75 0 21.37 8.63 8.63 8.63 8.63 21.38 0 12.76-8.63 21.37Q562.75-60 550-60H172.31Z"/></svg>
